!!!COM: Gomółka, Mikołaj
!!!CDT: ~1535-after 1591
!!!OTL: W Tobie ja samym, Panie
!!!OTL@LAT: Domine Deus meus
!!!AGn: Motet; Psalm
!!!SCn: Gom2007
!!!SCn: Gom2007
!!!voices: 4
**kern	**kern	**kern	**kern
*staff4	*staff3	*staff2	*staff1
*Ivox	*Ivox	*Ivox	*Ivox
*I"Bassus	*I"Tenor	*I"Altus	*I"Cantus
*I'B	*I'T	*I'A	*I'C
*clefF4	*clefGv2	*clefGv2	*clefG2
*k[b-]	*k[b-]	*k[b-]	*k[b-]
*M2/1	*M2/1	*M2/1	*M2/1
*met(C|)	*met(C|)	*met(C|)	*met(C|)
=1-	=1-	=1-	=1-
1G	1g	1b-	1dd
2B-	2f	2b-	2dd
2G	2g	2b-	2dd
=2	=2	=2	=2
1c	1e	2g	1ee
.	.	2cc	.
2B-	2d	2f	2ff
2BB-	2f	2b-	2dd
=3	=3	=3	=3
2F	2f	2a	2cc
2D	2f	2a	2dd
2AA	2e	2.a	2dd
2AA	2e	.	2cc#
.	.	4g	.
=4	=4	=4	=4
2D	2d	2f	2dd
2G	2B-	2d	2g
2E-	2e-i	2g	2b-
2F	2c	2f	2a
=5	=5	=5	=5
2G	2B-	2d	1g
2C	2c	2e-	.
2D	2A	2d	2f
2E-	2G	2B-	2g
=6	=6	=6	=6
1C	2.c	2c	4e-i
.	.	.	4f
.	.	2G	4g
.	4B-	.	4e-
2D	2A	2d	2f
2E-	2G	2c	[2g
=7	=7	=7	=7
1D	1A	2.d	2g]
.	.	.	2f#i
.	.	4c	.
1G	1G	1B-	1g
=8	=8	=8	=8
1G	1g	1b-	1dd
2B-	2f	2b-	2dd
2G	2g	2b-	2dd
=9	=9	=9	=9
1c	1e	2g	1ee
.	.	2cc	.
2B-	2d	2f	2ff
2BB-	2f	2b-	2dd
=10	=10	=10	=10
2F	2f	2a	2cc
2D	2f	2a	2dd
2AA	2e	2.a	2dd
2AA	2e	.	2cc#
.	.	4g	.
=11	=11	=11	=11
2D	2d	2f	2dd
2G	2B-	2d	2g
2E-	2e-i	2g	2b-
2F	2c	2f	2a
=12	=12	=12	=12
2G	2B-	2d	1g
2C	2c	2e-	.
2D	2A	2d	2f
2E-	2G	2B-	2g
=13	=13	=13	=13
1C	2.c	2c	4e-i
.	.	.	4f
.	.	2G	4g
.	4B-	.	4e-
2D	2A	2d	2f
2E-	2G	2c	[2g
=14	=14	=14	=14
1D	1A	2.d	2g]
.	.	.	2f#i
.	.	4c	.
2G	2G	2B-	2g
2B-	2d	2b-	2dd
=15	=15	=15	=15
2E-i	4e-	2g	2cc
.	4d	.	.
2G	4c	4d	1b-
.	4B-	4e-i	.
1F	1c	4f	.
.	.	4e-	.
.	.	4d	2a
.	.	4c	.
=16	=16	=16	=16
2BB-	2B-	2d	2b-
2D	2F	2d	2a
2G	2G	2d	2b-
2F#	2A	2d	2a
=17	=17	=17	=17
2G	2d	2g	2b-
2C	2e-	4f	2cc
.	.	4e-i	.
2D	2d	2f	2a
2BB-	2d	2f	2b-
=18	=18	=18	=18
2BB-	2d	2f	2b-
2FF	2c	2f	2a
4GG	1B-	1d	1g
4AA	.	.	.
4BB-	.	.	.
4C	.	.	.
=19	=19	=19	=19
2D	2A	2d	2f#
2D	2d	1f	1a
2F	2c	.	.
2C	2e-	2g	2cc
=20	=20	=20	=20
0E-i	1B-	1e-	2g
.	.	.	1b-
.	1G	2.B-	.
.	.	.	4a
.	.	4c	4g
=21	=21	=21	=21
0D	0A	1d	2f#
.	.	.	1g
.	.	2.d	.
.	.	.	2f#
.	.	4c	.
=22	=22	=22	=22
0GG	0G	0Bn	0g
==	==	==	==
*-	*-	*-	*-
!!!CNT: Polish
!!!OCY: Poland
!!!LYR: Jan Kochanowski (1530-1584/08/22)
!!!GTL: Melodiae na Psałterz Polski
!!!EFL: 7/150
!!!PPR: Łazarz Andrysowicz
!!!PPP: Kraków
!!!PDT: 1580
!!!YEC: 2015 Marcin Konik
!!!ENC: Marcin Konik
!!!END: 2015/03/06
!!!EED: Marcin Konik
!!!EEV: 2015/03/06
!!!ONB: Translated from MusicXML and edited on 2015/03/06 by Marcin Konik
!!!CharacterEncoding: utf-8
!!muse2ps: i2I150v85,85,85,150Q16
!!title: @{OTL}, @{GTL}, ed. @{ENC}
